Dominus_Dark_Funeral/22/apps/evolution-calendar.svg

<svg xmlns="http://www.w3.org/2000/svg" width="24" height="24" viewBox="0 0 6.35 6.35"><defs><linearGradient id="a"><stop offset="0"/><stop offset="1" stop-opacity="0"/></linearGradient></defs><path d="M.2.36v1.32h5.96V.36zm0 1.99v3.64h5.96V2.35zm2.08.84c.23 0 .41.05.54.16.13.1.2.24.2.42 0 .1-.04.2-.09.3-.05.09-.17.21-.34.36l-.42.37h.85v.36h-1.4V4.8l.7-.63a.67.67 0 0 0 .14-.16.34.34 0 0 0 .05-.17c0-.1-.03-.17-.1-.22a.35.35 0 0 0-.23-.09.75.75 0 0 0-.26.05l-.3.15v-.42a2.32 2.32 0 0 1 .66-.12zM4 3.23h.48v1.59h.44v.34H3.56v-.34H4V3.57l-.45.1v-.35z" fill="#e6e6e6" fill-rule="evenodd"/></svg>

<?xml version="1.0" encoding="UTF-8" standalone="no"?>
<svg
   xmlns:dc="http://purl.org/dc/elements/1.1/"
   xmlns:cc="http://creativecommons.org/ns#"
   xmlns:rdf="http://www.w3.org/1999/02/22-rdf-syntax-ns#"
   xmlns:svg="http://www.w3.org/2000/svg"
   xmlns="http://www.w3.org/2000/svg"
   xmlns:sodipodi="http://sodipodi.sourceforge.net/DTD/sodipodi-0.dtd"
   xmlns:inkscape="http://www.inkscape.org/namespaces/inkscape"
   width="24"
   height="24"
   viewBox="0 0 6.35 6.35"
   version="1.1"
   id="svg11"
   sodipodi:docname="evolution-calendar.svg"
   inkscape:version="0.92.4 (5da689c313, 2019-01-14)">
  <metadata
     id="metadata15">
    <rdf:RDF>
      <cc:Work
         rdf:about="">
        <dc:format>image/svg+xml</dc:format>
        <dc:type
           rdf:resource="http://purl.org/dc/dcmitype/StillImage" />
        <dc:title></dc:title>
      </cc:Work>
    </rdf:RDF>
  </metadata>
  <sodipodi:namedview
     pagecolor="#ffffff"
     bordercolor="#666666"
     borderopacity="1"
     objecttolerance="10"
     gridtolerance="10"
     guidetolerance="10"
     inkscape:pageopacity="0"
     inkscape:pageshadow="2"
     inkscape:window-width="1142"
     inkscape:window-height="480"
     id="namedview13"
     showgrid="false"
     inkscape:zoom="9.8333333"
     inkscape:cx="1.2711864"
     inkscape:cy="12"
     inkscape:window-x="0"
     inkscape:window-y="25"
     inkscape:window-maximized="0"
     inkscape:current-layer="svg11" />
  <defs
     id="defs7">
    <linearGradient
       id="a">
      <stop
         offset="0"
         id="stop2" />
      <stop
         offset="1"
         stop-opacity="0"
         id="stop4" />
    </linearGradient>
  </defs>
  <path
     d="M 0.2,0.36 V 1.68 H 6.16 V 0.36 Z m 0,1.99 V 5.99 H 6.16 V 2.35 Z m 2.08,0.84 c 0.23,0 0.41,0.05 0.54,0.16 0.13,0.1 0.2,0.24 0.2,0.42 0,0.1 -0.04,0.2 -0.09,0.3 C 2.88,4.16 2.76,4.28 2.59,4.43 L 2.17,4.8 H 3.02 V 5.16 H 1.62 V 4.8 L 2.32,4.17 A 0.67,0.67 0 0 0 2.46,4.01 0.34,0.34 0 0 0 2.51,3.84 C 2.51,3.74 2.48,3.67 2.41,3.62 A 0.35,0.35 0 0 0 2.18,3.53 0.75,0.75 0 0 0 1.92,3.58 L 1.62,3.73 V 3.31 A 2.32,2.32 0 0 1 2.28,3.19 Z M 4,3.23 H 4.48 V 4.82 H 4.92 V 5.16 H 3.56 V 4.82 H 4 V 3.57 L 3.55,3.67 V 3.32 Z"
     id="path9"
     inkscape:connector-curvature="0"
     style="fill:#e6e6e6;fill-rule:evenodd" />
</svg>
